icon/mp/snowmobile.svg

<svg version="1.2" baseProfile="tiny" xmlns="http://www.w3.org/2000/svg" viewBox="0 0 50 50" overflow="inherit" height="1em" width="1em">
  <path d="M20.689 12.393c1.98 0 3.581-1.649 3.581-3.702 0-2.031-1.601-3.691-3.581-3.691-1.981 0-3.589 1.66-3.589 3.691 0 2.053 1.608 3.702 3.589 3.702zm4.217 29.607h17.059s1.103.2 3.296-1.612l3.739-2.814v3.32l-3.814 2.938s-1.133.949-3.042 1.168h-18.668l1.43-3zm-23.763 3h17.067l1.419-3h-17.204l-1.425 3zm21.348-27.982c0-2.112-1.768-3.828-3.744-3.828-1.979 0-3.747 1.716-3.747 3.828v9.359c0 1.185.866 2.623 1.664 2.623h-8.018l-4.335 8.583c-.095.191-.137.599-.137.825-.001.768 1.107 1.592 1.826 1.592h29s1.309.115 3.222-1.49l7.675-6.077-2.897-5.433s-.656-1.321-3.107-1.718l-5.794-1.045-3.108-5.546-.133-.058c-.455-.553-.858-.611-1.858-.137v.012c0 .361-.511.948-.309 1.467l2.309 4.111v.033l-3.037 5.25-5.963-2.373v-1.996h5.089c.224 0 .456-.188.677-.289.879-.348 1.312-1.48.973-2.407-.251-.723-.889-1.193-1.553-1.204l-4.705-.032.01-4.05" fill="#231F20"/>
</svg>

<svg version="1.2" baseProfile="tiny" xmlns="http://www.w3.org/2000/svg" width="50" height="50" overflow="inherit"><path d="M20.689 12.393c1.98 0 3.581-1.649 3.581-3.702C24.27 6.66 22.669 5 20.689 5 18.708 5 17.1 6.66 17.1 8.691c0 2.053 1.608 3.702 3.589 3.702zM24.906 42h17.059s1.103.2 3.296-1.612L49 37.574v3.32l-3.814 2.938s-1.133.949-3.042 1.168H23.476l1.43-3zM1.143 45H18.21l1.419-3H2.425L1 45zm21.348-27.982c0-2.112-1.768-3.828-3.744-3.828-1.979 0-3.747 1.716-3.747 3.828v9.359c0 1.185.866 2.623 1.664 2.623H8.646l-4.335 8.583c-.095.191-.137.599-.137.825C4.173 39.176 5.281 40 6 40h29s1.309.115 3.222-1.49l7.675-6.077L43 27s-.656-1.321-3.107-1.718l-5.794-1.045-3.108-5.546-.133-.058c-.455-.553-.858-.611-1.858-.137v.012c0 .361-.511.948-.309 1.467L31 24.086v.033l-3.037 5.25L22 26.996V25h5.089c.224 0 .456-.188.677-.289.879-.348 1.312-1.48.973-2.407-.251-.723-.889-1.193-1.553-1.204l-4.705-.032.01-4.05" fill="#231F20"/></svg>
